X: 2056
T: the PIPE SLANG
C:
Q: "Reel."
R: Reel.
%R: reel
B: James Kerr "Merry Melodies" v.2 p.9 #56
Z: 2016 John Chambers <jc:trillian.mit.edu>
M: C
L: 1/8
%%slurgraces yes
%%graceslurs yes
K: Am
ue |\
cA A/A/A A2AB | cde^f gece |\
fd d/d/d d2df | eE E/E/E A2A ::\
c |\
A/A/A a2 gece |
f2(ed) ecAc |\
[1 A/A/A a2 gece | fdec {cB}A2(Ac) :|\
[2 GEcE GEEc | D/D/D E^G A2A |]
